public/icons/Stack-3.svg

<svg width="236" height="41" viewBox="0 0 236 41" fill="none" xmlns="http://www.w3.org/2000/svg">
<rect x="0.722656" y="0.117676" width="40" height="40" rx="4" fill="#141414"/>
<g opacity="0.3">
<path d="M32.3008 14.9538C32.2994 14.7209 32.2969 14.4881 32.2904 14.255C32.2768 13.7478 32.2469 13.2359 32.1567 12.7341C32.0652 12.2246 31.9157 11.7507 31.68 11.2878C31.4487 10.8332 31.1463 10.4172 30.7855 10.0564C30.4248 9.69567 30.0088 9.39329 29.554 9.16183C29.0915 8.92643 28.6176 8.77694 28.1085 8.68546C27.6064 8.59504 27.0946 8.56525 26.587 8.55152C26.3539 8.5452 26.1211 8.54255 25.8881 8.54111C25.6116 8.53955 25.3349 8.53955 25.0584 8.53955H18.9282H16.3886C16.1118 8.53955 15.8354 8.53955 15.559 8.54115C15.3259 8.54259 15.0928 8.54524 14.8601 8.55156C14.7332 8.55499 14.6061 8.55944 14.4788 8.56556C14.0972 8.58396 13.715 8.61769 13.3386 8.6855C12.9567 8.75413 12.5947 8.85535 12.2424 9.00099C12.125 9.04949 12.0086 9.10299 11.893 9.16183C11.5519 9.33542 11.2325 9.54891 10.9421 9.79697C10.8453 9.87968 10.7517 9.9662 10.6615 10.0564C10.3007 10.4171 9.99824 10.8332 9.7669 11.2878C9.53123 11.7507 9.38189 12.2245 9.29034 12.7341C9.20027 13.2359 9.17032 13.7477 9.15667 14.2549C9.15028 14.4881 9.14759 14.7209 9.14607 14.9538C9.14431 15.2304 9.14455 15.507 9.14455 15.7836V19.5588V24.4533C9.14455 24.7301 9.14427 25.0065 9.14607 25.2833C9.14759 25.5162 9.15028 25.749 9.15667 25.9817C9.17032 26.4892 9.20023 27.0012 9.29034 27.5027C9.38189 28.0122 9.53123 28.4864 9.7669 28.9492C9.99824 29.4039 10.3007 29.8198 10.6615 30.1804C11.0221 30.5413 11.4382 30.8437 11.893 31.0753C12.3556 31.3107 12.8295 31.46 13.3387 31.5515C13.8405 31.6418 14.3527 31.6719 14.8602 31.6854C15.0929 31.6916 15.326 31.6944 15.559 31.6957C15.8355 31.6977 16.1119 31.6974 16.3886 31.6974H25.0584C25.3349 31.6974 25.6116 31.6977 25.8881 31.6957C26.1211 31.6944 26.3539 31.6916 26.5869 31.6854C27.0945 31.6719 27.6064 31.6418 28.1084 31.5515C28.6175 31.46 29.0915 31.3107 29.554 31.0753C30.0088 30.8437 30.4248 30.5413 30.7855 30.1804C31.1462 29.8198 31.4487 29.4039 31.68 28.9492C31.9157 28.4864 32.0652 28.0122 32.1567 27.5027C32.2468 27.0012 32.2768 26.4892 32.2904 25.9817C32.2968 25.749 32.2993 25.5162 32.3008 25.2833C32.3025 25.0065 32.3024 24.7301 32.3024 24.4533V15.7836C32.3024 15.507 32.3025 15.2304 32.3008 14.9538Z" fill="#141414"/>
<path d="M27.4942 22.8343C27.4937 22.8336 27.4932 22.8331 27.4926 22.8324C27.5182 22.7452 27.5447 22.6586 27.5671 22.5692C28.5282 18.7398 26.1824 14.2124 22.2128 11.8286C23.9524 14.1868 24.7215 17.0432 24.0382 19.5411C23.9772 19.7639 23.9039 19.9777 23.823 20.1856C23.7351 20.1278 23.6243 20.0623 23.4756 19.9803C23.4756 19.9803 19.5269 17.5422 15.2471 13.2298C15.1348 13.1166 17.5293 16.6522 20.2467 19.5232C18.9664 18.8046 15.3985 16.2087 13.1397 14.1413C13.4172 14.6041 13.7473 15.0498 14.1101 15.4788C15.9964 17.8709 18.4563 20.8225 21.4034 23.0889C19.3327 24.3561 16.4069 24.4546 13.4937 23.0902C12.7732 22.7525 12.0958 22.3451 11.4688 21.8822C12.7019 23.8546 14.6011 25.5564 16.9126 26.5499C19.6691 27.7345 22.4103 27.6542 24.452 26.5693L24.4504 26.5716C24.4597 26.5658 24.4716 26.5593 24.4812 26.5534C24.5651 26.5083 24.6483 26.4624 24.7296 26.4139C25.7106 25.9048 27.6481 25.3882 28.6881 27.4117C28.9428 27.9069 29.484 25.2825 27.4942 22.8343Z" fill="white"/>
</g>
<rect x="65.7227" y="0.117676" width="40" height="40" rx="4" fill="#141414"/>
<g opacity="0.3">
<path d="M93.6174 33.2127L95.2449 32.1358C95.3725 32.5365 96.1801 33.4882 97.2004 33.4882C98.2206 33.4882 98.6943 32.9309 98.6943 32.5615C98.6943 31.5548 97.6525 31.1998 97.1522 31.0293C97.0706 31.0016 97.0034 30.9787 96.9575 30.9587C96.9339 30.9484 96.8983 30.9348 96.8526 30.9173C96.2961 30.7047 94.2429 29.9203 94.2429 27.6465C94.2429 25.142 96.6599 24.854 97.2065 24.854C97.564 24.854 99.2834 24.8978 100.14 26.507L98.5607 27.6089C98.2146 26.9077 97.6394 26.676 97.2854 26.676C96.4109 26.676 96.2287 27.3171 96.2287 27.6089C96.2287 28.4278 97.1788 28.7948 97.9811 29.1047C98.191 29.1858 98.3907 29.2629 98.5607 29.3433C99.4352 29.7565 100.723 30.4327 100.723 32.5615C100.723 33.6278 99.8283 35.354 97.5769 35.354C94.5526 35.354 93.751 33.5383 93.6174 33.2127Z" fill="white"/>
<path d="M85.7227 33.4265L87.419 32.3502C87.5519 32.7507 88.0684 33.4891 88.8178 33.4891C89.5672 33.4891 89.9508 32.7194 89.9508 32.3502V25.0909H92.037V32.3502C92.0708 33.3514 91.5155 35.354 89.0647 35.354C86.8113 35.354 85.8746 34.0148 85.7227 33.4265Z" fill="white"/>
</g>
<rect x="130.723" y="0.117676" width="40" height="40" rx="4" fill="#141414"/>
<path opacity="0.3" d="M162.852 19.1251L161.806 18.4769C161.797 18.3748 161.787 18.2731 161.776 18.1718L162.677 17.3329C162.769 17.2475 162.81 17.1212 162.785 16.9992C162.761 16.8765 162.675 16.7754 162.558 16.7323L161.407 16.3033C161.378 16.2036 161.347 16.1047 161.316 16.0054L162.034 15.0091C162.107 14.9078 162.122 14.776 162.074 14.6612C162.027 14.546 161.923 14.4636 161.8 14.4433L160.587 14.246C160.54 14.154 160.491 14.0634 160.441 13.9743L160.951 12.8541C161.004 12.7402 160.993 12.6086 160.923 12.5038C160.854 12.3999 160.736 12.3391 160.611 12.3439L159.379 12.3868C159.315 12.3072 159.25 12.2283 159.184 12.1508L159.468 10.952C159.497 10.8302 159.461 10.7018 159.372 10.6136C159.284 10.5254 159.156 10.4889 159.033 10.5175L157.835 10.8011C157.757 10.7354 157.678 10.6703 157.598 10.6067L157.641 9.37449C157.646 9.24984 157.585 9.13139 157.481 9.06227C157.377 8.99268 157.246 8.98219 157.131 9.03391L156.013 9.54394C155.923 9.49437 155.832 9.44527 155.742 9.39784L155.544 8.18474C155.524 8.06176 155.441 7.95737 155.326 7.91065C155.211 7.86275 155.078 7.87824 154.978 7.95117L153.982 8.66855C153.884 8.63733 153.785 8.6073 153.686 8.5787L153.257 7.42756C153.214 7.3103 153.113 7.22426 152.99 7.19995C152.868 7.17588 152.742 7.21663 152.657 7.30767L151.818 8.20857C151.716 8.19737 151.614 8.18712 151.513 8.17878L150.864 7.13012C150.799 7.02406 150.683 6.95947 150.557 6.95947C150.431 6.95947 150.316 7.02406 150.252 7.13012L149.604 8.17878C149.502 8.18712 149.4 8.19737 149.299 8.20857L148.46 7.30767C148.375 7.21663 148.248 7.17588 148.126 7.19995C148.003 7.2245 147.902 7.3103 147.859 7.42756L147.43 8.5787C147.33 8.6073 147.232 8.63757 147.135 8.66855L146.138 7.95117C146.037 7.878 145.905 7.86251 145.79 7.91065C145.675 7.95832 145.593 8.06271 145.573 8.18474L145.375 9.39784C145.283 9.44527 145.193 9.49413 145.103 9.54394L143.985 9.03391C143.872 8.98196 143.74 8.99268 143.635 9.06227C143.531 9.13139 143.47 9.24984 143.475 9.37449L143.518 10.6067C143.438 10.6703 143.359 10.7354 143.281 10.8011L142.083 10.5175C141.961 10.4892 141.832 10.5254 141.744 10.6136C141.656 10.702 141.62 10.8295 141.648 10.952L141.929 12.1508C141.864 12.2285 141.799 12.3072 141.735 12.3868L140.503 12.3439C140.379 12.3403 140.26 12.3999 140.191 12.5038C140.121 12.6072 140.111 12.7397 140.163 12.8541L140.673 13.9743C140.623 14.0641 140.574 14.1547 140.527 14.246L139.313 14.4433C139.19 14.4633 139.086 14.5458 139.039 14.6612C138.992 14.7768 139.007 14.909 139.08 15.0091L139.797 16.0054C139.766 16.1038 139.736 16.2027 139.707 16.3033L138.556 16.7323C138.439 16.7759 138.353 16.8769 138.329 16.9992C138.305 17.1217 138.345 17.2471 138.437 17.3329L139.338 18.1718C139.326 18.2731 139.316 18.3751 139.308 18.4769L138.261 19.1251C138.155 19.1907 138.091 19.3065 138.091 19.4326C138.091 19.5586 138.155 19.6733 138.261 19.7376L139.308 20.3859C139.316 20.4879 139.326 20.5897 139.338 20.691L138.437 21.5299C138.345 21.615 138.305 21.7413 138.329 21.8635C138.353 21.9863 138.439 22.0871 138.556 22.1305L139.707 22.5595C139.736 22.6591 139.766 22.758 139.797 22.8574L139.08 23.8536C139.007 23.9551 138.991 24.0869 139.039 24.2016C139.087 24.3172 139.191 24.3996 139.316 24.4194L140.529 24.6168C140.576 24.7088 140.625 24.7993 140.675 24.8885L140.165 26.0062C140.113 26.1199 140.124 26.2517 140.193 26.3566C140.263 26.4607 140.381 26.5215 140.506 26.5165L141.735 26.4734C141.799 26.5534 141.864 26.6319 141.93 26.7098L141.649 27.9086C141.62 28.0301 141.656 28.1565 141.745 28.2446C141.833 28.3335 141.961 28.3691 142.083 28.3405L143.282 28.0592C143.36 28.1255 143.439 28.1898 143.518 28.2532L143.475 29.4854C143.471 29.61 143.531 29.7285 143.635 29.7976C143.739 29.867 143.871 29.8775 143.986 29.8255L145.103 29.3155C145.194 29.3655 145.284 29.4141 145.375 29.4616L145.573 30.6747C145.593 30.7981 145.675 30.9025 145.791 30.9511C145.906 30.999 146.039 30.9836 146.139 30.9109L147.135 30.1935C147.233 30.2247 147.332 30.2552 147.433 30.2838L147.862 31.435C147.906 31.5517 148.007 31.6382 148.129 31.6621C148.251 31.6869 148.377 31.6459 148.463 31.5544L149.301 30.6535C149.403 30.6651 149.505 30.6749 149.607 30.684L150.255 31.7302C150.32 31.8358 150.436 31.9009 150.56 31.9009C150.684 31.9009 150.801 31.8361 150.867 31.7302L151.516 30.684C151.618 30.6749 151.719 30.6651 151.821 30.6535L152.66 31.5544C152.745 31.6459 152.871 31.6869 152.993 31.6621C153.116 31.638 153.217 31.5517 153.26 31.435L153.689 30.2838C153.789 30.2552 153.888 30.2247 153.987 30.1935L154.983 30.9109C155.085 30.9836 155.217 30.999 155.331 30.9511C155.447 30.9037 155.529 30.7991 155.549 30.6747L155.747 29.4616C155.838 29.4141 155.929 29.3648 156.019 29.3155L157.136 29.8255C157.25 29.8775 157.382 29.867 157.487 29.7976C157.591 29.728 157.651 29.61 157.647 29.4854L157.604 28.2532C157.683 28.1896 157.762 28.1255 157.84 28.0592L159.039 28.3405C159.161 28.3691 159.289 28.3335 159.377 28.2446C159.466 28.1562 159.502 28.0292 159.473 27.9086L159.192 26.7098C159.258 26.6319 159.323 26.5534 159.386 26.4734L160.618 26.5165C160.742 26.5215 160.861 26.4607 160.93 26.3566C161 26.2527 161.011 26.1204 160.959 26.0062L160.448 24.8885C160.498 24.7981 160.547 24.7076 160.594 24.6168L161.807 24.4194C161.931 24.3996 162.035 24.3172 162.082 24.2016C162.129 24.0865 162.114 23.9537 162.041 23.8536L161.324 22.8574C161.355 22.759 161.385 22.6601 161.414 22.5595L162.565 22.1305C162.682 22.0866 162.768 21.9858 162.792 21.8635C162.817 21.741 162.776 21.6157 162.684 21.5299L161.783 20.691C161.794 20.5897 161.804 20.4877 161.813 20.3859L162.859 19.7376C162.965 19.6723 163.03 19.5563 163.03 19.4326C163.03 19.3089 162.966 19.1918 162.86 19.1251H162.852ZM155.845 27.8242C155.445 27.7379 155.192 27.3428 155.278 26.9424C155.364 26.542 155.757 26.287 156.158 26.3728C156.558 26.4583 156.813 26.8542 156.727 27.2546C156.641 27.655 156.248 27.91 155.848 27.8242H155.845ZM155.49 25.4171C155.126 25.3389 154.766 25.571 154.689 25.9366L154.318 27.6717C153.171 28.1913 151.887 28.482 150.552 28.482C149.179 28.482 147.883 28.1793 146.715 27.6359L146.343 25.9009C146.265 25.5362 145.907 25.3027 145.542 25.3813L144.01 25.7102C143.726 25.4171 143.462 25.1049 143.219 24.776H150.678C150.763 24.776 150.819 24.7607 150.819 24.684V22.0385C150.819 21.9617 150.763 21.9465 150.678 21.9465H148.498V20.2758H150.855C151.07 20.2758 152.006 20.3373 152.304 21.5342C152.397 21.9012 152.604 23.0976 152.745 23.4813C152.885 23.9103 153.455 24.7683 154.063 24.7683H157.781C157.823 24.7683 157.868 24.7636 157.915 24.755C157.658 25.1053 157.374 25.4366 157.072 25.7464L155.503 25.4104L155.49 25.4171ZM145.17 27.7885C144.77 27.8748 144.377 27.6197 144.291 27.2189C144.205 26.8185 144.46 26.4228 144.861 26.337C145.261 26.2515 145.654 26.5065 145.74 26.9066C145.826 27.307 145.571 27.7027 145.17 27.7885ZM142.334 16.3247C142.5 16.6989 142.331 17.1374 141.958 17.3043C141.584 17.4704 141.147 17.3014 140.981 16.9277C140.814 16.554 140.983 16.115 141.357 15.9482C141.731 15.7823 142.167 15.951 142.334 16.3247ZM141.464 18.3839L143.061 17.6737C143.402 17.5223 143.557 17.1231 143.404 16.7823L143.076 16.0387H144.367V21.854H141.769C141.543 21.058 141.422 20.2191 141.422 19.3515C141.422 19.0203 141.439 18.6937 141.474 18.372L141.464 18.3839ZM148.471 17.8191V16.1031H151.546C151.705 16.1031 152.668 16.2868 152.668 17.0063C152.668 17.6046 151.93 17.8191 151.322 17.8191H148.462H148.471ZM159.649 19.3634C159.649 19.5913 159.641 19.8163 159.624 20.0403H158.687C158.594 20.0403 158.556 20.1018 158.556 20.1936V20.6226C158.556 21.6331 157.987 21.8547 157.486 21.9095C157.009 21.9632 156.483 21.7103 156.418 21.4186C156.137 19.8384 155.67 19.5024 154.931 18.9161C155.849 18.3346 156.802 17.4742 156.802 16.3183C156.802 15.0766 155.951 14.2948 155.372 13.9111C154.557 13.3749 153.656 13.2676 153.413 13.2676H143.737C145.05 11.8043 146.835 10.7652 148.837 10.3838L149.979 11.5802C150.236 11.8496 150.663 11.8615 150.934 11.6022L152.212 10.3819C154.881 10.88 157.145 12.5436 158.456 14.8387L157.581 16.8121C157.43 17.1529 157.584 17.5533 157.925 17.7035L159.607 18.4518C159.636 18.7497 159.651 19.0524 159.651 19.3575L159.649 19.3634ZM149.973 9.37735C150.268 9.09373 150.738 9.10565 151.019 9.40142C151.3 9.69695 151.291 10.1665 150.995 10.4501C150.699 10.7337 150.23 10.7218 149.948 10.4258C149.667 10.1302 149.677 9.66072 149.973 9.37711V9.37735ZM158.648 16.3605C158.814 15.9863 159.251 15.8171 159.625 15.9839C159.999 16.1498 160.169 16.5893 160.002 16.9634C159.836 17.3376 159.399 17.5068 159.025 17.34C158.651 17.1741 158.481 16.7346 158.648 16.3605Z" fill="white"/>
<rect x="195.723" y="0.117676" width="40" height="40" rx="4" fill="#141414"/>
<g opacity="0.3">
<path d="M215.606 10.5103V17.2214L221.279 19.7563L215.606 10.5103Z" fill="white" fill-opacity="0.602"/>
<path d="M215.606 10.5103L209.934 19.7563L215.606 17.2214V10.5103Z" fill="white"/>
<path d="M215.606 24.1047V28.6649L221.282 20.812L215.606 24.1047Z" fill="white" fill-opacity="0.602"/>
<path d="M215.606 28.6649V24.1047L209.934 20.812L215.606 28.6649Z" fill="white"/>
<path d="M215.606 23.0488L221.279 19.7561L215.606 17.2212V23.0488Z" fill="white" fill-opacity="0.2"/>
<path d="M209.934 19.7571L215.606 23.0498V17.2222L209.934 19.7571Z" fill="white" fill-opacity="0.602"/>
</g>
</svg>

<svg xmlns="http://www.w3.org/2000/svg" width="236" height="41" fill="none"><rect width="40" height="40" x=".723" y=".118" fill="#141414" rx="4"/><g opacity=".3"><path fill="#141414" d="M32.3 14.954a31.947 31.947 0 0 0-.01-.699 10.134 10.134 0 0 0-.133-1.52 5.13 5.13 0 0 0-.477-1.447 4.859 4.859 0 0 0-2.126-2.126 5.133 5.133 0 0 0-1.445-.477 10.13 10.13 0 0 0-1.522-.133 33.387 33.387 0 0 0-.699-.01c-.276-.002-.553-.002-.83-.002h-8.67l-.829.001a33.336 33.336 0 0 0-1.08.025 8.828 8.828 0 0 0-1.14.12c-.382.068-.744.17-1.097.315a4.863 4.863 0 0 0-2.475 2.287 5.13 5.13 0 0 0-.477 1.446c-.09.502-.12 1.014-.133 1.52-.007.234-.01.467-.01.7-.003.276-.002.553-.002.83v8.669l.001.83c.002.233.004.466.01.699.014.507.044 1.02.134 1.52.092.51.241.984.477 1.447a4.854 4.854 0 0 0 2.126 2.126c.463.236.936.385 1.446.477.502.09 1.014.12 1.521.133.233.007.466.01.699.01.277.003.553.002.83.002h8.67l.83-.001c.232-.002.465-.004.698-.01.508-.014 1.02-.044 1.521-.134.51-.092.983-.241 1.446-.477a4.86 4.86 0 0 0 2.126-2.126 5.13 5.13 0 0 0 .477-1.446c.09-.502.12-1.014.133-1.521.007-.233.01-.466.01-.699.003-.277.002-.553.002-.83v-8.67l-.001-.83Z"/><path fill="#fff" d="m27.494 22.834-.001-.002c.025-.087.052-.173.074-.263.961-3.83-1.385-8.357-5.354-10.74 1.74 2.358 2.508 5.214 1.825 7.712a6.526 6.526 0 0 1-.215.645 5.299 5.299 0 0 0-.347-.206s-3.95-2.438-8.229-6.75c-.112-.113 2.282 3.422 5 6.293-1.28-.718-4.848-3.314-7.107-5.382.277.463.607.909.97 1.338 1.886 2.392 4.346 5.344 7.293 7.61-2.07 1.267-4.996 1.366-7.91.001a11.952 11.952 0 0 1-2.024-1.208 12.128 12.128 0 0 0 5.444 4.668c2.756 1.184 5.497 1.104 7.539.02l-.002.002.031-.019c.084-.045.167-.09.249-.14.98-.508 2.918-1.025 3.958.999.255.495.796-2.13-1.194-4.578Z"/></g><rect width="40" height="40" x="65.723" y=".118" fill="#141414" rx="4"/><g fill="#fff" opacity=".3"><path d="m93.617 33.213 1.628-1.077c.127.4.935 1.352 1.955 1.352s1.494-.557 1.494-.926c0-1.007-1.041-1.362-1.542-1.533a2.85 2.85 0 0 1-.195-.07l-.104-.042c-.557-.212-2.61-.997-2.61-3.27 0-2.505 2.417-2.793 2.964-2.793.357 0 2.076.044 2.933 1.653l-1.58 1.102c-.345-.701-.92-.933-1.275-.933-.874 0-1.056.641-1.056.933 0 .819.95 1.186 1.752 1.496.21.08.41.158.58.238.874.413 2.162 1.09 2.162 3.219 0 1.066-.895 2.792-3.146 2.792-3.024 0-3.826-1.816-3.96-2.141ZM85.723 33.426l1.696-1.076c.133.4.65 1.14 1.399 1.14.75 0 1.133-.77 1.133-1.14v-7.26h2.086v7.26c.034 1.001-.522 3.004-2.972 3.004-2.254 0-3.19-1.34-3.342-1.928Z"/></g><rect width="40" height="40" x="130.723" y=".118" fill="#141414" rx="4"/><path fill="#fff" d="m162.852 19.125-1.046-.648a15.145 15.145 0 0 0-.03-.305l.901-.84a.357.357 0 0 0 .108-.333.357.357 0 0 0-.227-.267l-1.151-.429c-.029-.1-.06-.198-.091-.298l.718-.996a.359.359 0 0 0 .04-.348.359.359 0 0 0-.274-.218l-1.213-.197a7.898 7.898 0 0 0-.146-.272l.51-1.12a.357.357 0 0 0-.028-.35.358.358 0 0 0-.312-.16l-1.232.043a10.85 10.85 0 0 0-.195-.236l.284-1.199a.362.362 0 0 0-.435-.434l-1.198.283a10.83 10.83 0 0 0-.237-.194l.043-1.233a.36.36 0 0 0-.51-.34l-1.118.51c-.09-.05-.181-.099-.271-.146l-.198-1.213a.359.359 0 0 0-.566-.234l-.996.718a11.402 11.402 0 0 0-.296-.09l-.429-1.151a.358.358 0 0 0-.6-.12l-.839.9a11.387 11.387 0 0 0-.305-.03l-.649-1.048a.36.36 0 0 0-.612 0l-.648 1.049c-.102.008-.204.018-.305.03l-.839-.901a.362.362 0 0 0-.334-.108.358.358 0 0 0-.267.228l-.429 1.15-.295.09-.997-.717a.358.358 0 0 0-.565.234l-.198 1.213c-.092.047-.182.096-.272.146l-1.118-.51a.36.36 0 0 0-.51.34l.043 1.233c-.08.063-.159.128-.237.194l-1.198-.284a.364.364 0 0 0-.339.097.364.364 0 0 0-.096.338l.281 1.199c-.065.078-.13.156-.194.236l-1.232-.043a.362.362 0 0 0-.34.51l.51 1.12c-.05.09-.099.18-.146.272l-1.214.197a.36.36 0 0 0-.233.566l.717.996c-.031.099-.061.198-.09.298l-1.151.43a.359.359 0 0 0-.119.6l.901.839a7.775 7.775 0 0 0-.03.305l-1.047.648a.36.36 0 0 0 0 .613l1.047.648c.008.102.018.204.03.305l-.901.839a.36.36 0 0 0 .119.6l1.151.43c.029.1.059.198.09.297l-.717.997a.36.36 0 0 0 .236.565l1.213.198c.047.092.096.182.146.271l-.51 1.118a.362.362 0 0 0 .341.51l1.229-.043c.064.08.129.159.195.237l-.281 1.199a.36.36 0 0 0 .434.432l1.199-.282c.078.066.157.13.236.194l-.043 1.232a.36.36 0 0 0 .511.34l1.117-.51c.091.05.181.1.272.147l.198 1.213a.362.362 0 0 0 .566.236l.996-.718c.098.032.197.062.298.09l.429 1.152a.36.36 0 0 0 .601.12l.838-.901.306.03.648 1.046a.36.36 0 0 0 .612 0l.649-1.046.305-.03.839.9a.358.358 0 0 0 .6-.12l.429-1.15c.1-.029.199-.06.298-.09l.996.717a.36.36 0 0 0 .566-.236l.198-1.213.272-.146 1.117.51a.362.362 0 0 0 .511-.34l-.043-1.233c.079-.063.158-.128.236-.194l1.199.281a.36.36 0 0 0 .434-.431l-.281-1.2c.066-.077.131-.156.194-.236l1.232.044a.36.36 0 0 0 .341-.51l-.511-1.118c.05-.09.099-.181.146-.272l1.213-.198a.361.361 0 0 0 .234-.566l-.717-.996c.031-.098.061-.197.09-.297l1.151-.43a.36.36 0 0 0 .119-.6l-.901-.839c.011-.101.021-.203.03-.305l1.046-.648a.36.36 0 0 0 .001-.613h-.008Zm-7.007 8.7a.742.742 0 1 1 .003 0h-.003Zm-.355-2.408a.674.674 0 0 0-.801.52l-.371 1.735a9.135 9.135 0 0 1-7.603-.036l-.372-1.735a.674.674 0 0 0-.801-.52l-1.532.33a9.188 9.188 0 0 1-.791-.935h7.459c.085 0 .141-.015.141-.092v-2.646c0-.076-.056-.091-.141-.091h-2.18v-1.671h2.357c.215 0 1.151.061 1.449 1.258.093.367.3 1.564.441 1.947.14.43.71 1.287 1.318 1.287h3.718a.75.75 0 0 0 .134-.013 9.34 9.34 0 0 1-.843.991l-1.569-.336-.013.007Zm-10.32 2.371a.743.743 0 0 1-.309-1.451.74.74 0 1 1 .309 1.451Zm-2.836-11.463a.74.74 0 1 1-1.353.603.74.74 0 1 1 1.353-.603Zm-.87 2.059 1.597-.71a.674.674 0 0 0 .343-.892l-.328-.743h1.291v5.815h-2.598a9.147 9.147 0 0 1-.295-3.482l-.01.012Zm7.007-.565v-1.716h3.075c.159 0 1.122.184 1.122.903 0 .599-.738.813-1.346.813h-2.86.009Zm11.178 1.544c0 .228-.008.453-.025.677h-.937c-.093 0-.131.062-.131.154v.429c0 1.01-.569 1.232-1.07 1.287-.477.053-1.003-.2-1.068-.491-.281-1.58-.748-1.917-1.487-2.503.918-.581 1.871-1.442 1.871-2.598 0-1.241-.851-2.023-1.43-2.407-.815-.536-1.716-.643-1.959-.643h-9.676a9.172 9.172 0 0 1 5.1-2.884l1.142 1.196c.257.27.684.281.955.022l1.278-1.22a9.134 9.134 0 0 1 6.244 4.457l-.875 1.973a.676.676 0 0 0 .344.891l1.682.749c.029.298.044.6.044.905l-.002.006Zm-9.676-9.986a.738.738 0 0 1 1.046.024.744.744 0 0 1-.024 1.05.74.74 0 0 1-1.047-.025.744.744 0 0 1 .025-1.049Zm8.675 6.983a.742.742 0 1 1 1.352.603.742.742 0 0 1-1.352-.603Z" opacity=".3"/><rect width="40" height="40" x="195.723" y=".118" fill="#141414" rx="4"/><g fill="#fff" opacity=".3"><path fill-opacity=".602" d="M215.606 10.51v6.711l5.673 2.535-5.673-9.246Z"/><path d="m215.606 10.51-5.672 9.246 5.672-2.535v-6.71Z"/><path fill-opacity=".602" d="M215.606 24.105v4.56l5.676-7.853-5.676 3.293Z"/><path d="M215.606 28.665v-4.56l-5.672-3.293 5.672 7.853Z"/><path fill-opacity=".2" d="m215.606 23.049 5.673-3.293-5.673-2.535v5.828Z"/><path fill-opacity=".602" d="m209.934 19.757 5.672 3.293v-5.828l-5.672 2.535Z"/></g></svg>
